X:932
T:Rundarium efter Ankarloo
T:(SvL Skåne nr. 116)
Z:Patrik Månsson, 2009-01-03
S:efter Johan Ankarloo
O:Näsum, Skåne
B:Svenska Låtar Skåne
N:Ankarloo hade den efter Tundahl
M:2/4
L:1/16
K:G
|: DGBd gfge | eddc B2d2 | dccB A2a2 | fdef g4 :|
|: gfag fedc | Bded cBAG | FGAB cedc | BGAF G4 :|
(:musicend:)

(:music:)
